src/assets/icons/rocket-active.svg

<svg width="24" height="24" viewBox="0 0 24 24" fill="none" xmlns="http://www.w3.org/2000/svg">
<path d="M3.16929 15.166C2.97447 15.3037 2.8016 15.4434 2.66537 15.5796C1.56533 16.6796 1.18464 18.1216 1.05878 19.1996C0.994649 19.7488 0.993029 20.2335 1.00731 20.5819C1.01447 20.7569 1.14234 21.7492 1.15218 21.8507C1.25371 21.8606 2.24603 21.9885 2.42098 21.9956C2.76946 22.0099 3.2541 22.0083 3.80334 21.9442C4.88128 21.8183 6.32331 21.4376 7.42335 20.3376C7.55957 20.2013 7.69918 20.0285 7.83695 19.8336C8.17379 19.3573 8.34221 19.1191 8.44478 18.5917C8.51599 18.2255 8.46086 17.578 8.32876 17.2292C8.13848 16.7266 7.82812 16.4163 7.20739 15.7955C6.58666 15.1748 6.2763 14.8644 5.77377 14.6742C5.4249 14.5421 4.77745 14.4869 4.41126 14.5581C3.8838 14.6607 3.64563 14.8291 3.16929 15.166Z" fill="#1D2129"/>
<path fill-rule="evenodd" clip-rule="evenodd" d="M17.38 1.30301C18.4482 1.1067 19.382 1.03526 20.0513 1.01286C20.7221 0.990417 21.0575 0.979193 21.3549 1.13953C21.5491 1.24424 21.7572 1.45236 21.8619 1.64656C22.0222 1.94394 22.011 2.27932 21.9886 2.95009C21.9662 3.6194 21.8947 4.55327 21.6984 5.62145C21.3223 7.66814 20.4753 10.274 18.5709 12.4375L18.3214 17.232C18.3099 17.453 18.3041 17.5635 18.2944 17.6579C18.1049 19.4983 16.6015 20.9255 14.7537 21.0191C14.659 21.0239 14.5483 21.0239 14.327 21.0239H14.3267C14.1037 21.0239 13.9921 21.0239 13.8969 21.019C12.0367 20.9243 10.528 19.4786 10.354 17.6242C10.3451 17.5292 10.3404 17.4177 10.3308 17.1947L10.2837 16.0904L6.91104 12.7177L5.80675 12.6706C5.58376 12.6611 5.47227 12.6563 5.37724 12.6474C3.52282 12.4734 2.07715 10.9647 1.98239 9.10457C1.97754 9.00925 1.97754 8.89765 1.97754 8.67445C1.97754 8.45313 1.97754 8.34247 1.98234 8.24773C2.07588 6.39994 3.5031 4.89651 5.34353 4.70704C5.43789 4.69733 5.5484 4.69158 5.76943 4.68007L10.5639 4.43054C12.7274 2.52614 15.3333 1.67915 17.38 1.30301ZM15.189 10.1826C15.189 11.4905 14.1287 12.5507 12.8208 12.5507C11.5129 12.5507 10.4526 11.4905 10.4526 10.1826C10.4526 8.87468 11.5129 7.81442 12.8208 7.81442C14.1287 7.81442 15.189 8.87468 15.189 10.1826Z" fill="#1D2129"/>
</svg>

<svg width="24" height="24" fill="none" xmlns="http://www.w3.org/2000/svg"><path d="M3.17 15.166a4 4 0 0 0-.505.414c-1.1 1.1-1.48 2.542-1.606 3.62a9 9 0 0 0-.052 1.382c.007.175.135 1.167.145 1.269.102.01 1.094.137 1.269.145.348.014.833.012 1.382-.052 1.078-.126 2.52-.506 3.62-1.606.137-.137.276-.31.414-.504.337-.477.505-.715.608-1.242.071-.366.016-1.014-.116-1.363-.19-.502-.5-.813-1.122-1.433-.62-.621-.93-.932-1.433-1.122-.35-.132-.997-.187-1.363-.116-.527.103-.765.271-1.242.608" fill="#1D2129"/><path fill-rule="evenodd" clip-rule="evenodd" d="M17.38 1.303a18 18 0 0 1 2.671-.29c.671-.023 1.007-.034 1.304.127.194.104.402.312.507.507.16.297.149.632.127 1.303-.023.67-.094 1.603-.29 2.671-.377 2.047-1.224 4.653-3.128 6.817l-.25 4.794a9 9 0 0 1-.027.426 3.75 3.75 0 0 1-3.54 3.361c-.095.005-.206.005-.427.005-.223 0-.335 0-.43-.005a3.75 3.75 0 0 1-3.543-3.395c-.009-.095-.014-.206-.023-.43l-.047-1.104-3.373-3.372-1.104-.047a9 9 0 0 1-.43-.024 3.75 3.75 0 0 1-3.395-3.542c-.004-.096-.004-.207-.004-.43 0-.222 0-.333.004-.427a3.75 3.75 0 0 1 3.362-3.541c.094-.01.204-.015.425-.027l4.795-.25c2.163-1.904 4.77-2.75 6.816-3.127m-2.191 8.88a2.368 2.368 0 1 1-4.736 0 2.368 2.368 0 0 1 4.736 0" fill="#1D2129"/></svg>
